X:11431
T:Munster Cloak (D major)
M:3/4
L:1/8
R:Waltz
K:D
|:D2DE FD|E2EF GE|D2DE FA|G2E2A2   |
|D2DE FD|E2EF GE|A2 AB cA|G2 E2A2:|
|:d2de dc|A2 d2e2|f2e2d2|c2d2e2   |
|f2e2d2|c2 AB cA|AG EA GE|E2D2D2:|
